X:311
%%etbk:tnset id:96,pos:3,rep:3x,ant:
%%etbk:tnset id:263,pos:7,rep:1x+AB-Stop,ant:
%%etbk:tnset id:508,pos:2,rep:3x,ant:
%%etbk:wsite http://www.thesession.org/tunes/display/9
%%etbk:pldat 2016-06-22T16:08,2016-06-20T18:28,2016-05-05T15:05,2016-05-04T15:12,2016-05-03T17:04,2016-05-02T18:45,2016-04-09T15:38,2016-04-08T18:49,2016-04-07T16:43,2016-04-05T15:22,2016-04-02T14:45,2016-03-31T16:57,2016-03-30T16:54,2016-03-10T18:37,2016-03-08T15:42,2016-03-05T15:32,2016-02-23T17:15,2015-10-28T15:36,2015-10-25T14:01,2015-10-21T16:12,2015-10-13T16:29,2015-10-03T16:35,2015-06-22T18:34,2015-04-21T15:39,2015-03-11T16:25,2015-03-06T16:03,2015-02-10T18:10,2015-01-29T18:27,2014-11-05T18:00,2014-11-02T14:26,2014-10-28T16:54,2014-10-10T16:20,2014-08-21T19:04,2014-08-20T19:21,2014-06-23T18:13,2014-06-13T15:43,2014-06-03T16:01,2014-03-05T18:07,2014-03-01T17:22,2014-02-27T18:27,2014-02-25T17:59,2013-10-29T15:32,2013-10-26T16:16,2013-10-17T18:39,2013-10-13T16:31,2013-10-09T15:18,2013-08-29T15:23
T: Banish Misfortune
Z: Piano Box Version by Martin Fleischmann
H: Created 2013-02-19 /  Last Modified 2013-02-19
M: 6/8
L: 1/8
R: jig
K: Dmix
|: "D"!5!fed !2!c!1!A!2!G | !1!A2!5!d !4!c!2!A!1!G | !3!F2!1!D !1!D !3!(3D!2!D!1!D | !2!F!1!E!2!F !3!G!2!F!3!G | 
!1!A!2!A!1!A !2!c!1!A!2!G | !1!A!2!G!1!A !2!cde | "A"!5!fed !2!c!1!A!2!G | "D"!1!A!3!d^c d3 :| 
|: "D"!3!f2!1!d !1!d^!2!c!1!d | !3!f2g agf | "C"!2!e2!1!c !1!c!2!B!1!c | !2!e2f gfe |
"D"!3!f2g !5!agf | "C"!2!e2f !4!gfe | "D"!5!fe!1!d !2!c!1!A!2!G | !1!A!3!d!2!^c !3!d3 :|
|: "D"!3!f2g e2f | !1!de!1!d !2!c2!3!d | !1!A!2!A!1!A !3!GAG | !2!F2F !3!G!2!F!1!D |
 "C"!3!c2!2!c !2!c!1!A!2!G | !1!A!2!G!1!A !2!cde | "D"!5!fed !2!c!1!A!2!G | !1!A!3!d^c d3 :|


